X: 799
T: Zhen tongkuai
%%abc-version 2.0
%%abcx-abcm2ps-target-version 5.9.1 (29 Sep 2008)
%%abc-creator hum2abc beta
%%abcx-conversion-date 2013/10/02 07:52:31
%%abc-edited-by Helmut Schaffrath
%%humdrum-veritas 408998463
%%humdrum-veritas-data 542439225
%%continueall 1
%%barnumbers 0
L: 1/8
M: 2/4
K: G
d2d B/ A/ [I:setbarnb 1]| 
d3e | 
c B d A/ B/ | 
G F E D | 
G> A B d | 
A AB2 | 
A G F E | 
D4 |]  



